coreui/free/cil-pregnant.svg

<svg xmlns="http://www.w3.org/2000/svg" viewBox="0 0 512 512">
  <path fill="var(--ci-primary-color, currentColor)" d="M224,144a64,64,0,1,0-64-64A64.072,64.072,0,0,0,224,144Zm0-96a32,32,0,1,1-32,32A32.036,32.036,0,0,1,224,48Z" class="ci-primary"/>
  <path fill="var(--ci-primary-color, currentColor)" d="M353.959,251.37c-15.021-16.9-35.063-27.659-62.61-33.506L266.551,160H178.123L152,342.863V400h56v96h96V400h80V352C384,307.028,374.174,274.112,353.959,251.37ZM352,368H272v96H240V368H184V345.137L205.877,192h39.572l23.291,54.344,8.629,1.438c24.5,4.083,41.233,11.979,52.672,24.848C344.817,289.253,352,315.215,352,352Z" class="ci-primary"/>
</svg>

<svg viewBox="0 0 512 512" xmlns="http://www.w3.org/2000/svg"><g><path d="M224 144v0c35.34 0 64-28.66 64-64 0-35.35-28.66-64-64-64 -35.35 0-64 28.65-64 64v0c.03 35.32 28.67 63.96 64 64Zm0-96v0c17.67 0 32 14.32 32 32 0 17.67-14.33 32-32 32 -17.68 0-32-14.33-32-32v0c.01-17.67 14.33-31.99 32-32Z"/><path d="M353.959 251.37c-15.03-16.9-35.07-27.66-62.61-33.506l-24.8-57.87H178.12L151.99 342.85v57.137h56v96h96v-96h80v-48c0-44.98-9.83-77.89-30.05-100.63ZM351.999 368h-80v96h-32v-96h-56v-22.863L205.86 192h39.572l23.29 54.34 8.62 1.43c24.5 4.08 41.23 11.97 52.67 24.84 14.77 16.62 21.95 42.58 21.95 79.37Z"/></g></svg>
